svg/part/coat_fill.svg

<?xml version="1.0" encoding="UTF-8"?>
<svg width="24px" height="24px" viewBox="0 0 24 24" version="1.1" xmlns="http://www.w3.org/2000/svg" xmlns:xlink="http://www.w3.org/1999/xlink">
    <title>coat_fill</title>
    <g id="Icon" stroke="none" stroke-width="1" fill="none" fill-rule="evenodd">
        <g id="Part" transform="translate(-576.000000, -48.000000)">
            <g id="coat_fill" transform="translate(576.000000, 48.000000)">
                <path d="M24,0 L24,24 L0,24 L0,0 L24,0 Z M12.5934901,23.257841 L12.5819402,23.2595131 L12.5108777,23.2950439 L12.4918791,23.2987469 L12.4918791,23.2987469 L12.4767152,23.2950439 L12.4056548,23.2595131 C12.3958229,23.2563662 12.3870493,23.2590235 12.3821421,23.2649074 L12.3780323,23.275831 L12.360941,23.7031097 L12.3658947,23.7234994 L12.3769048,23.7357139 L12.4804777,23.8096931 L12.4953491,23.8136134 L12.4953491,23.8136134 L12.5071152,23.8096931 L12.6106902,23.7357139 L12.6232938,23.7196733 L12.6232938,23.7196733 L12.6266527,23.7031097 L12.609561,23.275831 C12.6075724,23.2657013 12.6010112,23.2592993 12.5934901,23.257841 L12.5934901,23.257841 Z M12.8583906,23.1452862 L12.8445485,23.1473072 L12.6598443,23.2396597 L12.6498822,23.2499052 L12.6498822,23.2499052 L12.6471943,23.2611114 L12.6650943,23.6906389 L12.6699349,23.7034178 L12.6699349,23.7034178 L12.678386,23.7104931 L12.8793402,23.8032389 C12.8914285,23.8068999 12.9022333,23.8029875 12.9078286,23.7952264 L12.9118235,23.7811639 L12.8776777,23.1665331 C12.8752882,23.1545897 12.8674102,23.1470016 12.8583906,23.1452862 L12.8583906,23.1452862 Z M12.1430473,23.1473072 C12.1332178,23.1423925 12.1221763,23.1452606 12.1156365,23.1525954 L12.1099173,23.1665331 L12.0757714,23.7811639 C12.0751323,23.7926639 12.0828099,23.8018602 12.0926481,23.8045676 L12.108256,23.8032389 L12.3092106,23.7104931 L12.3186497,23.7024347 L12.3186497,23.7024347 L12.3225043,23.6906389 L12.340401,23.2611114 L12.337245,23.2485176 L12.337245,23.2485176 L12.3277531,23.2396597 L12.1430473,23.1473072 Z" id="MingCute" fill-rule="nonzero"></path>
                <path d="M13.5278,3 C13.9936,3 14.4529,3.10844 14.8695,3.31672 L16.9014,4.33266 C18.1345,4.94921 19.0583,6.04755 19.4544,7.36805 L21.7161,14.907 C21.9955,15.8384 21.5646,16.8357 20.6949,17.2706 L19.6833,17.7764 C19.2799,17.9781 18.7914,17.8848 18.4907,17.5486 L18,17 L17.7317,18.7522 C17.3997,20.0358 16.2335,21 14.8264,21 L9.17357,21 C7.76647,21 6.60029,20.0358 6.26825,18.7522 L5.99997,17 L5.50926,17.5486 C5.20858,17.8848 4.72009,17.9781 4.31669,17.7764 L3.30506,17.2706 C2.43536,16.8357 2.00443,15.8384 2.28384,14.907 L4.54553,7.36805 C4.94168,6.04755 5.86549,4.94921 7.09859,4.33266 L9.13047,3.31672 C9.54704,3.10844 10.0064,3 10.4721,3 L13.5278,3 Z M13.5278,5 L10.4721,5 C10.3557,5 10.2404812,5.02033437 10.1315484,5.05978812 L10.0249,5.10557 L9.06514,5.58545 L12,10.1507 L14.9348,5.58545 L13.9751,5.10557 C13.870925,5.053505 13.7587625,5.02015437 13.643675,5.00673312 L13.5278,5 Z" id="形状" fill="#09244B"></path>
            </g>
        </g>
    </g>
</svg>

<svg xmlns="http://www.w3.org/2000/svg" width="24" height="24"><g fill="none" fill-rule="evenodd"><path d="M24 0v24H0V0h24ZM12.593 23.258l-.011.002-.071.035-.02.004-.014-.004-.071-.035c-.01-.004-.019-.001-.024.005l-.004.01-.017.428.005.02.01.013.104.074.015.004.012-.004.104-.074.012-.016.004-.017-.017-.427c-.002-.01-.009-.017-.017-.018Zm.265-.113-.013.002-.185.093-.01.01-.003.011.018.43.005.012.008.007.201.093c.012.004.023 0 .029-.008l.004-.014-.034-.614c-.003-.012-.01-.02-.02-.022Zm-.715.002a.023.023 0 0 0-.027.006l-.006.014-.034.614c0 .012.007.02.017.024l.015-.002.201-.093.01-.008.004-.011.017-.43-.003-.012-.01-.01-.184-.092Z"/><path fill="#09244B" d="M13.528 3a3 3 0 0 1 1.342.317L16.9 4.333a5 5 0 0 1 2.553 3.035l2.262 7.539a2 2 0 0 1-1.021 2.364l-1.012.505a1 1 0 0 1-1.192-.227L18 17l-.268 1.752A3.002 3.002 0 0 1 14.826 21H9.174a3.002 3.002 0 0 1-2.906-2.248L6 17l-.49.549a1 1 0 0 1-1.193.227l-1.012-.505a2 2 0 0 1-1.021-2.364l2.262-7.539a5 5 0 0 1 2.553-3.035L9.13 3.317A3 3 0 0 1 10.472 3h3.056Zm0 2h-3.056a1 1 0 0 0-.34.06l-.107.046-.96.48L12 10.15l2.935-4.566-.96-.48a1 1 0 0 0-.331-.098L13.528 5Z"/></g></svg>
